X:11
T:N.P. G&D_1811.11
M:6/8
L:1/8
Q:3/8=120
B:Goulding, D’Almaine & Potter 24 CDs, 1811
O:England
A:London
N:Marked with a large (P),signifying copyright.Title consists of
N:Initials. New Prices?
Z:Village Music Project, 1999, Chris Partington
W:1st Lady & 2nd Gent lead down the middle & up again.The 1st Gent &
W:second Lady do the same. 1st Cu down the middle, up again & Allemande
K:A
c2BA2e|c3ABc|def cde|BdA GFE|
c2BA2e|c3Ace|f2ef2g|a3-a3:|
|:B2B Bcd|efga2A|B2B Bcd|efdc2e|
f3agf|e2d cde|f2ed2c|B2A"^D.C." GFE|]

